X: 68
T:Minuet. JaW.068
M:3/4
Q:1/4=90
C:"A Good Tune"
S:James Winder Ms, Lancashire, 1835-41
R:Minuet
O:England
A:Wyresdale,Lancashire
N:As written, not quite right is it
H:1/4
Z:vmp.Chris Partington, Aug 2004
K:G
Bc/B/A/G/|ADG|A/G/A/B/|B2A|dc/B/A/G/|gf/e/d/c/|BcA|G3:|!
|:Bc/B/A/G/|Ad2|Bc/B/A/G/|A3|!
d=f/e/d/c/|d"tr"g2|d"tr"g2|d"tr"g2|"music runs out..."cd/c/B/A/B/c/|
